school/img/country/SG.svg

<svg width="13" height="12" viewBox="0 0 13 12" fill="none" xmlns="http://www.w3.org/2000/svg">
<rect x="0.25" y="0.25" width="12.5" height="11.5" rx="1.75" fill="white" stroke="#F5F5F5" stroke-width="0.5"/>
<mask id="mask0" mask-type="alpha" maskUnits="userSpaceOnUse" x="0" y="0" width="13" height="12">
<rect x="0.25" y="0.25" width="12.5" height="11.5" rx="1.75" fill="white" stroke="white" stroke-width="0.5"/>
</mask>
<g mask="url(#mask0)">
<path fill-rule="evenodd" clip-rule="evenodd" d="M0 6.4H13V0H0V6.4Z" fill="#E12237"/>
<path fill-rule="evenodd" clip-rule="evenodd" d="M3.0953 5.6C3.5341 5.6 3.93736 5.40333 4.25517 5.07448C4.08682 5.15563 3.90459 5.2 3.71435 5.2C2.85962 5.2 2.16673 4.30457 2.16673 3.2C2.16673 2.09543 2.85962 1.2 3.71435 1.2C3.90459 1.2 4.08682 1.24436 4.25517 1.32551C3.93736 0.996663 3.5341 0.799995 3.0953 0.799995C2.06963 0.799995 1.23816 1.87451 1.23816 3.2C1.23816 4.52548 2.06963 5.6 3.0953 5.6ZM3.71435 2.8C3.71435 3.02091 3.57577 3.2 3.40483 3.2C3.23388 3.2 3.0953 3.02091 3.0953 2.8C3.0953 2.57908 3.23388 2.4 3.40483 2.4C3.57577 2.4 3.71435 2.57908 3.71435 2.8ZM4.02385 4.79999C4.1948 4.79999 4.33337 4.62091 4.33337 4.39999C4.33337 4.17908 4.1948 3.99999 4.02385 3.99999C3.85291 3.99999 3.71433 4.17908 3.71433 4.39999C3.71433 4.62091 3.85291 4.79999 4.02385 4.79999ZM5.57149 4.39999C5.57149 4.62091 5.43291 4.79999 5.26197 4.79999C5.09102 4.79999 4.95245 4.62091 4.95245 4.39999C4.95245 4.17908 5.09102 3.99999 5.26197 3.99999C5.43291 3.99999 5.57149 4.17908 5.57149 4.39999ZM5.88099 3.2C6.05194 3.2 6.19052 3.02091 6.19052 2.8C6.19052 2.57908 6.05194 2.4 5.88099 2.4C5.71005 2.4 5.57147 2.57908 5.57147 2.8C5.57147 3.02091 5.71005 3.2 5.88099 3.2ZM4.95247 1.6C4.95247 1.82091 4.81389 2 4.64294 2C4.472 2 4.33342 1.82091 4.33342 1.6C4.33342 1.37908 4.472 1.2 4.64294 1.2C4.81389 1.2 4.95247 1.37908 4.95247 1.6Z" fill="white"/>
</g>
</svg>

<svg width="13" height="12" fill="none" xmlns="http://www.w3.org/2000/svg"><rect x=".25" y=".25" width="12.5" height="11.5" rx="1.75" fill="#fff" stroke="#F5F5F5" stroke-width=".5"/><mask id="a" maskUnits="userSpaceOnUse" x="0" y="0" width="13" height="12"><rect x=".25" y=".25" width="12.5" height="11.5" rx="1.75" fill="#fff" stroke="#fff" stroke-width=".5"/></mask><g mask="url(#a)" fill-rule="evenodd" clip-rule="evenodd"><path d="M0 6.4h13V0H0v6.4z" fill="#E12237"/><path d="M3.095 5.6c.44 0 .842-.197 1.16-.526-.168.082-.35.126-.54.126-.855 0-1.548-.895-1.548-2s.693-2 1.547-2c.19 0 .373.044.541.126C3.937.996 3.535.8 3.095.8 2.07.8 1.238 1.875 1.238 3.2s.832 2.4 1.857 2.4zm.62-2.8c0 .22-.14.4-.31.4-.171 0-.31-.18-.31-.4 0-.22.139-.4.31-.4.17 0 .31.18.31.4zm.309 2c.17 0 .31-.18.31-.4 0-.22-.14-.4-.31-.4-.171 0-.31.18-.31.4 0 .22.139.4.31.4zm1.547-.4c0 .22-.138.4-.309.4-.171 0-.31-.18-.31-.4 0-.22.139-.4.31-.4.17 0 .31.18.31.4zm.31-1.2c.17 0 .31-.18.31-.4 0-.22-.14-.4-.31-.4-.171 0-.31.18-.31.4 0 .22.14.4.31.4zm-.929-1.6c0 .22-.138.4-.31.4-.17 0-.309-.18-.309-.4 0-.22.139-.4.31-.4.17 0 .31.18.31.4z" fill="#fff"/></g></svg>
